!!!SOCIAL_FUNCTION:	songs of war
!!!PDT:	1913
!!!OTL: No_50_Song_of_the_Captive_Sioux_Woman.krn
!!!REG: Great_Lakes
!!!LANG: Non-Tone
!!!LING_GROUP: Algonquin
**kern	**kern
*staff2	*staff1
*clefF4	*clefF4
*k[f#c#g#]	*k[f#c#g#]
*M3/4	*M3/4
4.r	8F#\L
.	16.c#\L
.	32c#\JK
.	8c#\J
=1	=1
8GG#^/L	4A\
8GG#/J	.
8GG#^/L	4.A\
8GG#/J	.
8GG#^/L	.
8GG#/J	8c#\
=2||	=2||
*M2/4	*M2/4
2r	16.c#;\LL
.	32d\L
.	(32.c#\
.	64B\JK)
.	16B\JJ
.	(16.B\LL
.	32c#\JK)
.	8B\J
=3||	=3||
*M3/4	*M3/4
2.r	4F#\
.	4.F#\
.	8A\
=4||	=4||
*M2/4	*M2/4
2r	16.A\LL
.	32A\JK
.	8A\J
.	(16A\LL
.	48F#\JK)
.	12F#\
.	12F#\J
=5	=5
2r	2F#\
=6||	=6||
*M3/4	*M3/4
2.r	8A\L
.	8A\J
.	4F#\
.	4E\
=7	=7
2.r	4F#\
.	2F#\
==	==
*-	*-
